assets/themes/blind_osm/Blindicon.svg

<?xml version="1.0" encoding="UTF-8" standalone="no"?>
<svg
   xmlns:dc="http://purl.org/dc/elements/1.1/"
   xmlns:cc="http://web.resource.org/cc/"
   xmlns:rdf="http://www.w3.org/1999/02/22-rdf-syntax-ns#"
   xmlns:svg="http://www.w3.org/2000/svg"
   xmlns="http://www.w3.org/2000/svg"
   xmlns:sodipodi="http://sodipodi.sourceforge.net/DTD/sodipodi-0.dtd"
   xmlns:inkscape="http://www.inkscape.org/namespaces/inkscape"
   height="300"
   id="svg3784"
   inkscape:version="0.44"
   sodipodi:docname="blind.svg"
   sodipodi:version="0.32"
   width="300"
   version="1.0">
  <metadata
     id="metadata12">
    <rdf:RDF>
      <cc:Work
         rdf:about="">
        <dc:format>image/svg+xml</dc:format>
        <dc:type
           rdf:resource="http://purl.org/dc/dcmitype/StillImage" />
      </cc:Work>
    </rdf:RDF>
  </metadata>
  <sodipodi:namedview
     bordercolor="#666666"
     borderopacity="1.0"
     id="base"
     inkscape:current-layer="svg3784"
     inkscape:cx="351.14257"
     inkscape:cy="81.197744"
     inkscape:pageopacity="0.0"
     inkscape:pageshadow="2"
     inkscape:window-height="933"
     inkscape:window-width="1270"
     inkscape:window-x="0"
     inkscape:window-y="25"
     inkscape:zoom="0.86831673"
     pagecolor="#ffffff"
     showguides="true"
     inkscape:guide-bbox="true"
     width="300px"
     height="300px" />
  <defs
     id="defs3786" />
  <g
     id="g1882"
     transform="translate(28.43524,9.649407e-7)">
    <path
       sodipodi:nodetypes="cscccccsscsc"
       style="fill:black;stroke:none"
       id="path3804"
       d="M 210.33417,191.65047 C 210.33417,179.53433 220.26102,175.91258 225.95211,175.91258 C 233.0994,175.91258 243.12746,181.78823 243.12746,190.08484 L 242.87908,209.62593 L 243.12952,295.90021 L 234.29056,295.90021 L 232.96717,209.62593 C 232.96717,209.62593 232.96717,191.12798 232.96717,191.0574 C 232.96717,186.71174 228.46696,183.5511 225.68738,183.5511 C 222.17358,183.5511 218.19838,185.65866 218.19838,191.05823 C 218.19838,191.05823 218.80484,197.11533 214.43742,197.11533 C 210.06944,197.11533 210.33417,192.50605 210.33417,191.65047 z " />
    <g
       transform="matrix(0.610021,0,0,0.610021,12.22882,1.800647e-5)"
       id="g3302">
      <path
         style="fill:black;stroke:none"
         id="path3304"
         d="M 268.409,81.671 C 290.959,81.671 309.243,63.387 309.243,40.836 C 309.243,18.284 290.959,0 268.409,0 C 245.857,0 227.575,18.284 227.575,40.836 C 227.575,63.387 245.857,81.671 268.409,81.671 z " />
      <path
         style="fill:black;stroke:none"
         id="path3306"
         d="M 215.941,156.723 L 216.191,468.473 C 216.191,499.657 262.049,499.372 262.049,467.759 L 262.076,286.393 L 271.002,286.307 L 270.974,467.674 C 270.974,499.286 317.367,500.085 317.367,468.473 L 317.394,155.416 L 325.452,155.416 L 325.452,267.211 C 325.452,294.049 361.872,294.049 361.872,267.691 L 361.872,145.393 C 361.872,112.517 337.403,93.156 311.524,93.156 L 238.913,93.156 C 221.691,93.156 209.191,99.973 198.691,114.973 L 161.941,168.527 L 98.171,168.527 C 72.547,168.527 73.985,204.867 97.691,204.867 L 171.191,204.867 C 176.942,204.867 183.941,202.723 187.964,196.719 L 215.941,156.723 z " />
    </g>
    <path
       style="fill:black;stroke:white;stroke-width:0.40784183"
       id="path3137"
       d="M 50.305761,266.80923 L 89.585873,266.80923 L 89.585873,290.08304 C 89.585873,302.8547 108.96858,302.8547 108.96858,290.08304 L 108.96858,239.26628 L 117.68864,239.26628 C 130.15719,239.26628 130.27044,222.03901 117.98154,222.03901 L 102.38946,222.03901 L 102.38946,222.05987 L 53.213018,222.04242 L 23.374151,192.20398 L 23.374151,207.40354 C 23.374151,207.40354 2.7913322,227.98507 2.7278998,228.05063 C -2.0780775,233.03627 0.68911627,239.13005 5.114075,239.13005 L 31.036296,239.13005 L 31.12825,290.08304 C 31.12825,302.8547 50.328753,302.8547 50.328753,290.08304 L 50.328753,266.80923" />
    <path
       sodipodi:nodetypes="czc"
       id="path3088"
       d="M 78.839329,119.06609 C 78.839329,119.06609 84.283955,150.68007 76.380462,173.16111 C 68.476969,195.64216 48.218879,224.39003 48.218879,224.39003"
       style="fill:none;fill-opacity:0.75;fill-rule:evenodd;stroke:black;stroke-width:5.18517828;stroke-linecap:butt;stroke-linejoin:miter;stroke-miterlimit:4;stroke-dasharray:none;stroke-opacity:1" />
  </g>
</svg>

<?xml version="1.0" encoding="UTF-8" standalone="no"?>
<svg
   xmlns:dc="http://purl.org/dc/elements/1.1/"
   xmlns:cc="http://creativecommons.org/ns#"
   xmlns:rdf="http://www.w3.org/1999/02/22-rdf-syntax-ns#"
   xmlns:svg="http://www.w3.org/2000/svg"
   xmlns="http://www.w3.org/2000/svg"
   xmlns:sodipodi="http://sodipodi.sourceforge.net/DTD/sodipodi-0.dtd"
   xmlns:inkscape="http://www.inkscape.org/namespaces/inkscape"
   height="500"
   id="svg3784"
   inkscape:version="1.0.1 (3bc2e813f5, 2020-09-07)"
   sodipodi:docname="Blindicon.svg"
   sodipodi:version="0.32"
   width="500"
   version="1.0">
  <metadata
     id="metadata12">
    <rdf:RDF>
      <cc:Work
         rdf:about="">
        <dc:format>image/svg+xml</dc:format>
        <dc:type
           rdf:resource="http://purl.org/dc/dcmitype/StillImage" />
        <dc:title></dc:title>
      </cc:Work>
    </rdf:RDF>
  </metadata>
  <sodipodi:namedview
     bordercolor="#666666"
     borderopacity="1.0"
     id="base"
     inkscape:current-layer="svg3784"
     inkscape:cx="351.14257"
     inkscape:cy="81.197744"
     inkscape:pageopacity="0.0"
     inkscape:pageshadow="2"
     inkscape:window-height="2066"
     inkscape:window-width="3840"
     inkscape:window-x="2149"
     inkscape:window-y="-11"
     inkscape:zoom="0.86831673"
     pagecolor="#ffffff"
     showguides="true"
     inkscape:guide-bbox="true"
     width="300px"
     height="300px"
     inkscape:document-rotation="0"
     showgrid="false"
     inkscape:window-maximized="1" />
  <defs
     id="defs3786" />
  <g
     id="g1882"
     transform="matrix(1.6666669,0,0,1.6666669,47.391376,-3.3391765e-5)">
    <path
       sodipodi:nodetypes="cscccccsscsc"
       style="fill:#000000;stroke:none"
       id="path3804"
       d="m 210.33417,191.65047 c 0,-12.11614 9.92685,-15.73789 15.61794,-15.73789 7.14729,0 17.17535,5.87565 17.17535,14.17226 l -0.24838,19.54109 0.25044,86.27428 h -8.83896 l -1.32339,-86.27428 c 0,0 0,-18.49795 0,-18.56853 0,-4.34566 -4.50021,-7.5063 -7.27979,-7.5063 -3.5138,0 -7.489,2.10756 -7.489,7.50713 0,0 0.60646,6.0571 -3.76096,6.0571 -4.36798,0 -4.10325,-4.60928 -4.10325,-5.46486 z" />
    <g
       transform="matrix(0.610021,0,0,0.610021,12.22882,1.800647e-5)"
       id="g3302">
      <path
         style="fill:#000000;stroke:none"
         id="path3304"
         d="m 268.409,81.671 c 22.55,0 40.834,-18.284 40.834,-40.835 C 309.243,18.284 290.959,0 268.409,0 c -22.552,0 -40.834,18.284 -40.834,40.836 0,22.551 18.282,40.835 40.834,40.835 z" />
      <path
         style="fill:#000000;stroke:none"
         id="path3306"
         d="m 215.941,156.723 0.25,311.75 c 0,31.184 45.858,30.899 45.858,-0.714 l 0.027,-181.366 8.926,-0.086 -0.028,181.367 c 0,31.612 46.393,32.411 46.393,0.799 l 0.027,-313.057 h 8.058 v 111.795 c 0,26.838 36.42,26.838 36.42,0.48 V 145.393 c 0,-32.876 -24.469,-52.237 -50.348,-52.237 h -72.611 c -17.222,0 -29.722,6.817 -40.222,21.817 l -36.75,53.554 h -63.77 c -25.624,0 -24.186,36.34 -0.48,36.34 h 73.5 c 5.751,0 12.75,-2.144 16.773,-8.148 z" />
    </g>
    <path
       style="fill:#000000;stroke:#ffffff;stroke-width:0.407842"
       id="path3137"
       d="m 50.305761,266.80923 h 39.280112 v 23.27381 c 0,12.77166 19.382707,12.77166 19.382707,0 v -50.81676 h 8.72006 c 12.46855,0 12.5818,-17.22727 0.2929,-17.22727 h -15.59208 v 0.0209 l -49.176442,-0.0174 -29.838867,-29.83844 v 15.19956 c 0,0 -20.5828188,20.58153 -20.6462512,20.64709 -4.8059773,4.98564 -2.03878353,11.07942 2.3861752,11.07942 h 25.922221 l 0.09195,50.95299 c 0,12.77166 19.200503,12.77166 19.200503,0 v -23.27381" />
    <path
       sodipodi:nodetypes="czc"
       id="path3088"
       d="m 78.839329,119.06609 c 0,0 5.444626,31.61398 -2.458867,54.09502 -7.903493,22.48105 -28.161583,51.22892 -28.161583,51.22892"
       style="fill:none;fill-opacity:0.75;fill-rule:evenodd;stroke:#000000;stroke-width:5.18518;stroke-linecap:butt;stroke-linejoin:miter;stroke-miterlimit:4;stroke-dasharray:none;stroke-opacity:1" />
  </g>
</svg>
